; generated by PrusaSlicer 2.7.3+win64 on 2024-09-27 at 14:25:27 UTC


;
;
; 

; external perimeters extrusion width = 0.45mm
; perimeters extrusion width = 0.45mm
; infill extrusion width = 0.45mm
; solid infill extrusion width = 0.45mm
; top infill extrusion width = 0.40mm
; support material extrusion width = 0.35mm
; first layer extrusion width = 0.42mm

M73 P0 R108
M73 Q0 S112
M201 X1000 Y1000 Z200 E5000 ; sets maximum accelerations, mm/sec^2
M203 X200 Y200 Z12 E120 ; sets maximum feedrates, mm / sec
M204 S1250 T1250 ; sets acceleration (S) and retract acceleration (R), mm/sec^2
M205 X8.00 Y8.00 Z0.40 E4.50 ; sets the jerk limits, mm/sec
M205 S0 T0 ; sets the minimum extruding and travel feed rate, mm/sec

; printing object 1_bottom_roll_cap.stl id:0 copy 0
; stop printing object 1_bottom_roll_cap.stl id:0 copy 0

;TYPE:Custom
M862.3 P "MK3S" ; printer model check
M862.1 P0.4 ; nozzle diameter check
M115 U3.12.2 ; tell printer latest fw version
G90 ; use absolute coordinates
M83 ; extruder relative mode
M104 S215 ; set extruder temp
M140 S60 ; set bed temp
M190 S60 ; wait for bed temp
M109 S215 ; wait for extruder temp
G28 W ; home all without mesh bed level
G80 ; mesh bed leveling

G1 Z0.2 F720
G1 Y-3 F1000 ; go outside print area
G92 E0
G1 X60 E9 F1000 ; intro line
G1 X100 E12.5 F1000 ; intro line

G92 E0
M221 S95

; Don't change E values below. Excessive value can damage the printer.

M907 E538 ; set extruder motor current
G21 ; set units to millimeters
G90 ; use absolute coordinates
M83 ; use relative distances for extrusion
M900 K0.05 ; Filament gcode LA 1.5
M900 K30 ; Filament gcode LA 1.0
M107
;LAYER_CHANGE
;Z:0.2
;HEIGHT:0.2
G1 E-.8 F2100
G1 Z.6 F720
G1 X85.77 Y74.998 F10800
G1 Z.2 F720
G1 E.8 F2100
M204 S800
;TYPE:Skirt/Brim
;WIDTH:0.42
G1 F1200
G1 X94.998 Y65.77 E.40918
G1 X95.616 Y65.324 E.0239
G1 X104.844 Y60.71 E.32349
G1 X112.077 Y58.274 E.2393
G1 X112.828 Y58.152 E.02386
G1 X137.172 Y58.152 E.76329
G1 X137.923 Y58.274 E.02386
G1 X145.156 Y60.71 E.2393
G1 X154.384 Y65.324 E.32349
G1 X155.002 Y65.77 E.0239
G1 X164.231 Y74.998 E.40921
G1 X164.676 Y75.616 E.02388
G1 X169.29 Y84.844 E.32349
G1 X171.726 Y92.077 E.2393
G1 X171.848 Y92.828 E.02386
G1 X171.848 Y117.172 E.76329
G1 X171.726 Y117.923 E.02386
G1 X169.29 Y125.156 E.2393
G1 X164.676 Y134.384 E.32349
G1 X164.231 Y135.002 E.02388
G1 X155.002 Y144.231 E.40923
G1 X154.384 Y144.676 E.02388
G1 X145.156 Y149.29 E.32349
G1 X137.923 Y151.726 E.2393
M73 P0 R107
G1 X137.172 Y151.848 E.02386
G1 X112.828 Y151.848 E.76329
G1 X112.077 Y151.726 E.02386
G1 X104.844 Y149.29 E.2393
G1 X95.616 Y144.676 E.32349
G1 X94.998 Y144.231 E.02388
G1 X85.77 Y135.002 E.40921
G1 X85.324 Y134.384 E.0239
G1 X80.71 Y125.156 E.32349
G1 X78.274 Y117.923 E.2393
G1 X78.152 Y117.172 E.02386
G1 X78.152 Y92.828 E.76329
G1 X78.274 Y92.077 E.02386
G1 X80.71 Y84.844 E.2393
G1 X85.324 Y75.616 E.32349
G1 X85.734 Y75.047 E.02199
M204 S1000
;WIPE_START
G1 F8640
G1 X85.77 Y74.998 E-.01404
G1 X88.177 Y72.591 E-.78596
;WIPE_END
G1 Z.6 F720
; printing object 1_bottom_roll_cap.stl id:0 copy 0
G1 X137.172 Y62.836 F10800
G1 Z.2 F720
G1 E.8 F2100
M204 S800
;TYPE:Support material
G1 F1200
G1 X144.093 Y62.836 E.217
G1 X144.093 Y65.143 E.07233
G1 X148.707 Y65.143 E.14467
G1 X148.707 Y67.45 E.07233
G1 X153.321 Y67.45 E.14467
G1 X153.321 Y69.757 E.07233
G1 X155.628 Y69.757 E.07233
G1 X155.628 Y72.065 E.07237
G1 X157.935 Y72.065 E.07233
G1 X157.935 Y74.372 E.07233
G1 X160.243 Y74.372 E.07237
G1 X160.243 Y76.679 E.07233
G1 X162.55 Y76.679 E.07233
G1 X162.55 Y81.293 E.14467
G1 X164.857 Y81.293 E.07233
G1 X164.857 Y85.907 E.14467
G1 X167.164 Y85.907 E.07233
G1 X167.164 Y92.828 E.217
G1 X169.471 Y92.828 E.07233
G1 X169.471 Y117.172 E.76329
G1 X167.164 Y117.172 E.07233
G1 X167.164 Y124.093 E.217
G1 X164.857 Y124.093 E.07233
G1 X164.857 Y128.707 E.14467
G1 X162.55 Y128.707 E.07233
G1 X162.55 Y133.321 E.14467
G1 X160.243 Y133.321 E.07233
G1 X160.243 Y135.628 E.07233
G1 X157.935 Y135.628 E.07237
G1 X157.935 Y137.935 E.07233
G1 X155.628 Y137.935 E.07233
G1 X155.628 Y140.243 E.07237
G1 X153.321 Y140.243 E.07233
G1 X153.321 Y142.55 E.07233
G1 X148.707 Y142.55 E.14467
G1 X148.707 Y144.857 E.07233
G1 X144.093 Y144.857 E.14467
G1 X144.093 Y147.164 E.07233
G1 X137.172 Y147.164 E.217
G1 X137.172 Y149.471 E.07233
G1 X112.828 Y149.471 E.76329
G1 X112.828 Y147.164 E.07233
G1 X105.907 Y147.164 E.217
G1 X105.907 Y144.857 E.07233
G1 X101.293 Y144.857 E.14467
G1 X101.293 Y142.55 E.07233
G1 X96.679 Y142.55 E.14467
G1 X96.679 Y140.243 E.07233
G1 X94.372 Y140.243 E.07233
G1 X94.372 Y137.935 E.07237
G1 X92.065 Y137.935 E.07233
G1 X92.065 Y135.628 E.07233
G1 X89.757 Y135.628 E.07237
G1 X89.757 Y133.321 E.07233
G1 X87.45 Y133.321 E.07233
G1 X87.45 Y128.707 E.14467
G1 X85.143 Y128.707 E.07233
G1 X85.143 Y124.093 E.14467
G1 X82.836 Y124.093 E.07233
G1 X82.836 Y117.172 E.217
G1 X80.529 Y117.172 E.07233
G1 X80.529 Y92.828 E.76329
G1 X82.836 Y92.828 E.07233
G1 X82.836 Y85.907 E.217
G1 X85.143 Y85.907 E.07233
G1 X85.143 Y81.293 E.14467
G1 X87.45 Y81.293 E.07233
G1 X87.45 Y76.679 E.14467
G1 X89.757 Y76.679 E.07233
G1 X89.757 Y74.372 E.07233
G1 X92.065 Y74.372 E.07237
G1 X92.065 Y72.065 E.07233
G1 X94.372 Y72.065 E.07233
G1 X94.372 Y69.757 E.07237
G1 X96.679 Y69.757 E.07233
G1 X96.679 Y67.45 E.07233
G1 X101.293 Y67.45 E.14467
G1 X101.293 Y65.143 E.07233
G1 X105.907 Y65.143 E.14467
G1 X105.907 Y62.836 E.07233
G1 X112.828 Y62.836 E.217
G1 X112.828 Y60.529 E.07233
G1 X137.172 Y60.529 E.76329
G1 X137.172 Y62.78 E.07058
M204 S1000
G1 X137.172 Y62.78 F10800
G1 X124.73 Y67.471
M204 S800
G1 F1200
G1 X128.523 Y67.636 E.11904
G1 X132.283 Y68.184 E.11914
G1 X135.479 Y68.963 E.10314
G1 X139.049 Y70.199 E.11845
G1 X142.497 Y71.799 E.11918
G1 X145.755 Y73.732 E.11878
G1 X148.811 Y75.991 E.11916
G1 X151.259 Y78.187 E.10311
G1 X153.827 Y80.969 E.11871
G1 X156.099 Y83.992 E.11857
G1 X157.819 Y86.797 E.10317
G1 X159.492 Y90.209 E.11915
G1 X160.808 Y93.764 E.11886
G1 X161.761 Y97.445 E.11922
G1 X162.337 Y101.202 E.11917
G1 X162.529 Y104.969 E.11826
G1 X162.385 Y108.285 E.10407
G1 X161.862 Y112.049 E.11915
G1 X160.967 Y115.717 E.11838
G1 X159.698 Y119.301 E.11921
G1 X158.073 Y122.737 E.11917
G1 X156.117 Y125.981 E.11877
G1 X154.16 Y128.626 E.10316
G1 X151.633 Y131.442 E.11863
G1 X148.821 Y134.001 E.11921
G1 X145.782 Y136.251 E.11856
G1 X142.965 Y137.951 E.10316
G1 X139.55 Y139.595 E.11884
G1 X135.999 Y140.882 E.11843
G1 X132.814 Y141.707 E.10316
G1 X129.067 Y142.309 E.11899
G1 X125.273 Y142.529 E.11916
G1 X121.476 Y142.364 E.11916
G1 X118.218 Y141.912 E.10313
G1 X114.543 Y141.044 E.1184
G1 X110.95 Y139.801 E.11921
G1 X107.502 Y138.201 E.11918
G1 X104.244 Y136.268 E.11878
G1 X101.585 Y134.33 E.10317
G1 X98.751 Y131.824 E.11862
G1 X96.172 Y129.031 E.1192
G1 X93.9 Y126.008 E.11857
G1 X92.18 Y123.203 E.10317
G1 X90.511 Y119.8 E.11884
G1 X89.191 Y116.236 E.11916
G1 X88.243 Y112.581 E.11839
G1 X87.72 Y109.332 E.10318
G1 X87.473 Y105.542 E.11908
G1 X87.611 Y101.747 E.11907
G1 X88.131 Y97.983 E.11914
G1 X88.888 Y94.782 E.10313
G1 X90.097 Y91.203 E.11845
G1 X91.672 Y87.743 E.1192
G1 X93.582 Y84.471 E.11879
G1 X95.819 Y81.4 E.11913
G1 X97.998 Y78.935 E.10316
G1 X100.761 Y76.347 E.1187
G1 X103.767 Y74.053 E.11856
G1 X106.559 Y72.313 E.10315
G1 X109.959 Y70.616 E.11915
G1 X113.505 Y69.274 E.11888
G1 X117.178 Y68.294 E.11919
G1 X120.932 Y67.691 E.11921
G1 X124.673 Y67.472 E.1175
M204 S1000
;WIPE_START
G1 F8640
G1 X121.214 Y67.675 E-.8
;WIPE_END
G1 Z.6 F720
G1 X168.993 Y117.002 F10800
G1 Z.2 F720
G1 E.8 F2100
M204 S800
G1 F1200
G1 X168.993 Y93.168 E.7473
G1 X168.574 Y93.168 E.01314
G1 X168.574 Y116.832 E.74197
G1 X168.155 Y116.832 E.01314
G1 X168.155 Y93.168 E.74197
G1 X167.736 Y93.168 E.01314
G1 X167.736 Y116.832 E.74197
G1 X167.317 Y116.832 E.01314
M73 Q0 S111
G1 X167.317 Y93.168 E.74197
G1 X166.898 Y93.168 E.01314
G1 X166.898 Y116.832 E.74197
G1 X166.824 Y116.832 E.00232
G1 X166.824 Y123.754 E.21703
G1 X166.479 Y123.754 E.01082
G1 X166.479 Y86.246 E1.17604
G1 X166.06 Y86.246 E.01314
G1 X166.06 Y123.754 E1.17604
G1 X165.641 Y123.754 E.01314
M73 P1 R107
G1 X165.641 Y86.246 E1.17604
G1 X165.222 Y86.246 E.01314
M73 Q1 S111
G1 X165.222 Y123.754 E1.17604
G1 X164.803 Y123.754 E.01314
G1 X164.803 Y86.246 E1.17604
G1 X164.517 Y86.246 E.00897
G1 X164.517 Y81.632 E.14467
G1 X164.384 Y81.632 E.00417
G1 X164.384 Y128.368 E1.46537
G1 X163.965 Y128.368 E.01314
G1 X163.965 Y81.632 E1.46537
G1 X163.546 Y81.632 E.01314
M73 P1 R106
G1 X163.546 Y128.368 E1.46537
G1 X163.127 Y128.368 E.01314
G1 X163.127 Y81.632 E1.46537
G1 X162.708 Y81.632 E.01314
G1 X162.708 Y128.368 E1.46537
G1 X162.289 Y128.368 E.01314
G1 X162.289 Y111.6 E.52575
G1 X161.87 Y113.639 E.06527
G1 X161.87 Y132.982 E.60649
G1 X161.451 Y132.982 E.01314
G1 X161.451 Y115.265 E.5555
G1 X161.032 Y116.648 E.04531
G1 X161.032 Y132.982 E.51214
G1 X160.613 Y132.982 E.01314
G1 X160.613 Y117.875 E.47367
G1 X160.194 Y118.979 E.03702
G1 X160.194 Y132.982 E.43905
G1 X159.903 Y132.982 E.00912
G1 X159.903 Y135.289 E.07233
G1 X159.775 Y135.289 E.00401
G1 X159.775 Y119.991 E.47966
G1 X159.356 Y120.928 E.03218
G1 X159.356 Y135.289 E.45028
G1 X158.937 Y135.289 E.01314
G1 X158.937 Y121.801 E.42291
G1 X158.518 Y122.622 E.0289
G1 X158.518 Y135.289 E.39716
G1 X158.099 Y135.289 E.01314
G1 X158.099 Y123.398 E.37283
G1 X157.68 Y124.131 E.02647
G1 X157.68 Y135.289 E.34985
G1 X157.596 Y135.289 E.00263
G1 X157.596 Y137.596 E.07233
G1 X157.261 Y137.596 E.0105
G1 X157.261 Y124.831 E.40024
G1 X156.842 Y125.495 E.02462
G1 X156.842 Y137.596 E.37942
G1 X156.423 Y137.596 E.01314
G1 X156.423 Y126.133 E.35941
G1 X156.004 Y126.743 E.0232
G1 X156.004 Y137.596 E.34029
G1 X155.585 Y137.596 E.01314
G1 X155.585 Y127.328 E.32195
G1 X155.166 Y127.891 E.022
G1 X155.166 Y139.903 E.37663
G1 X154.747 Y139.903 E.01314
G1 X154.747 Y128.434 E.3596
G1 X154.328 Y128.955 E.02096
G1 X154.328 Y139.903 E.34327
G1 X153.909 Y139.903 E.01314
G1 X153.909 Y129.459 E.32746
G1 X153.49 Y129.946 E.02014
G1 X153.49 Y139.903 E.31219
G1 X153.071 Y139.903 E.01314
G1 X153.071 Y130.417 E.29743
G1 X152.652 Y130.873 E.01942
G1 X152.652 Y142.21 E.35546
G1 X152.234 Y142.21 E.01311
G1 X152.234 Y131.313 E.34167
G1 X151.815 Y131.74 E.01876
G1 X151.815 Y142.21 E.32828
G1 X151.396 Y142.21 E.01314
G1 X151.396 Y132.153 E.31533
G1 X150.977 Y132.554 E.01818
G1 X150.977 Y142.21 E.30276
G1 X150.558 Y142.21 E.01314
G1 X150.558 Y132.943 E.29056
G1 X150.139 Y133.32 E.01767
G1 X150.139 Y142.21 E.27874
G1 X149.72 Y142.21 E.01314
G1 X149.72 Y133.687 E.26723
G1 X149.301 Y134.043 E.01724
G1 X149.301 Y142.21 E.25607
G1 X148.882 Y142.21 E.01314
G1 X148.882 Y134.388 E.24525
G1 X148.463 Y134.724 E.01684
G1 X148.463 Y142.21 E.23472
G1 X148.368 Y142.21 E.00298
G1 X148.368 Y144.517 E.07233
G1 X148.044 Y144.517 E.01016
G1 X148.044 Y135.05 E.29683
G1 X147.625 Y135.367 E.01647
G1 X147.625 Y144.517 E.28689
G1 X147.206 Y144.517 E.01314
G1 X147.206 Y135.674 E.27727
G1 X146.787 Y135.974 E.01616
G1 X146.787 Y144.517 E.26786
G1 X146.368 Y144.517 E.01314
G1 X146.368 Y136.264 E.25877
G1 X145.949 Y136.547 E.01585
G1 X145.949 Y144.517 E.24989
G1 X145.53 Y144.517 E.01314
G1 X145.53 Y136.821 E.2413
G1 X145.111 Y137.087 E.01556
G1 X145.111 Y144.517 E.23296
G1 X144.692 Y144.517 E.01314
G1 X144.692 Y137.346 E.22484
G1 X144.273 Y137.597 E.01531
G1 X144.273 Y144.517 E.21697
G1 X143.854 Y144.517 E.01314
G1 X143.854 Y137.841 E.20932
G1 X143.435 Y138.078 E.01509
G1 X143.435 Y146.824 E.27422
G1 X143.016 Y146.824 E.01314
G1 X143.016 Y138.308 E.26701
G1 X142.597 Y138.532 E.0149
G1 X142.597 Y146.824 E.25999
G1 X142.178 Y146.824 E.01314
G1 X142.178 Y138.749 E.25319
G1 X141.759 Y138.958 E.01468
G1 X141.759 Y146.824 E.24663
G1 X141.34 Y146.824 E.01314
G1 X141.34 Y139.162 E.24024
G1 X140.921 Y139.359 E.01452
G1 X140.921 Y146.824 E.23406
G1 X140.502 Y146.824 E.01314
G1 X140.502 Y139.55 E.22807
G1 X140.083 Y139.735 E.01436
G1 X140.083 Y146.824 E.22227
G1 X139.664 Y146.824 E.01314
G1 X139.664 Y139.915 E.21663
G1 X139.245 Y140.087 E.0142
G1 X139.245 Y146.824 E.21123
G1 X138.826 Y146.824 E.01314
G1 X138.826 Y140.254 E.206
G1 X138.407 Y140.415 E.01407
G1 X138.407 Y146.824 E.20095
G1 X137.988 Y146.824 E.01314
G1 X137.988 Y140.571 E.19606
G1 X137.569 Y140.722 E.01396
G1 X137.569 Y146.824 E.19132
G1 X137.15 Y146.824 E.01314
G1 X137.15 Y140.867 E.18678
G1 X136.731 Y141.006 E.01384
G1 X136.731 Y149.132 E.25479
G1 X136.312 Y149.132 E.01314
G1 X136.312 Y141.139 E.25061
G1 X135.893 Y141.268 E.01375
G1 X135.893 Y149.132 E.24657
G1 X135.474 Y149.132 E.01314
G1 X135.474 Y141.391 E.24271
G1 X135.055 Y141.51 E.01366
M73 Q1 S110
G1 X135.055 Y149.132 E.23898
G1 X134.636 Y149.132 E.01314
G1 X134.636 Y141.622 E.23547
G1 X134.217 Y141.729 E.01356
G1 X134.217 Y149.132 E.23212
G1 X133.799 Y149.132 E.01311
G1 X133.799 Y141.832 E.22889
G1 X133.38 Y141.93 E.01349
G1 X133.38 Y149.132 E.22581
G1 X132.961 Y149.132 E.01314
G1 X132.961 Y142.023 E.2229
G1 X132.542 Y142.11 E.01342
G1 X132.542 Y149.132 E.22017
G1 X132.123 Y149.132 E.01314
G1 X132.123 Y142.192 E.2176
G1 X131.704 Y142.271 E.01337
G1 X131.704 Y149.132 E.21512
G1 X131.285 Y149.132 E.01314
G1 X131.285 Y142.344 E.21283
G1 X130.866 Y142.412 E.01331
G1 X130.866 Y149.132 E.2107
G1 X130.447 Y149.132 E.01314
G1 X130.447 Y142.475 E.20873
G1 X130.028 Y142.533 E.01326
G1 X130.028 Y149.132 E.20691
G1 X129.609 Y149.132 E.01314
G1 X129.609 Y142.588 E.20518
G1 X129.19 Y142.636 E.01322
G1 X129.19 Y149.132 E.20368
G1 X128.771 Y149.132 E.01314
G1 X128.771 Y142.68 E.2023
G1 X128.352 Y142.72 E.0132
G1 X128.352 Y149.132 E.20104
G1 X127.933 Y149.132 E.01314
G1 X127.933 Y142.755 E.19995
G1 X127.514 Y142.786 E.01317
G1 X127.514 Y149.132 E.19897
G1 X127.095 Y149.132 E.01314
G1 X127.095 Y142.811 E.19819
G1 X126.676 Y142.831 E.01315
G1 X126.676 Y149.132 E.19756
G1 X126.257 Y149.132 E.01314
G1 X126.257 Y142.848 E.19703
G1 X125.838 Y142.86 E.01314
G1 X125.838 Y149.132 E.19665
G1 X125.419 Y149.132 E.01314
G1 X125.419 Y142.866 E.19647
G1 X125 Y142.868 E.01314
G1 X125 Y149.132 E.1964
G1 X124.581 Y149.132 E.01314
G1 X124.581 Y142.866 E.19647
G1 X124.162 Y142.86 E.01314
G1 X124.162 Y149.132 E.19665
G1 X123.743 Y149.132 E.01314
G1 X123.743 Y142.848 E.19703
G1 X123.324 Y142.831 E.01315
G1 X123.324 Y149.132 E.19756
G1 X122.905 Y149.132 E.01314
G1 X122.905 Y142.811 E.19819
G1 X122.486 Y142.786 E.01316
M73 P2 R106
G1 X122.486 Y149.132 E.19897
G1 X122.067 Y149.132 E.01314
G1 X122.067 Y142.755 E.19995
G1 X121.648 Y142.72 E.01318
G1 X121.648 Y149.132 E.20104
G1 X121.229 Y149.132 E.01314
G1 X121.229 Y142.68 E.2023
G1 X120.81 Y142.636 E.01321
G1 X120.81 Y149.132 E.20368
G1 X120.391 Y149.132 E.01314
G1 X120.391 Y142.588 E.20518
G1 X119.972 Y142.533 E.01325
G1 X119.972 Y149.132 E.20691
G1 X119.553 Y149.132 E.01314
G1 X119.553 Y142.475 E.20873
G1 X119.134 Y142.412 E.01329
G1 X119.134 Y149.132 E.2107
G1 X118.715 Y149.132 E.01314
G1 X118.715 Y142.344 E.21283
G1 X118.296 Y142.271 E.01334
G1 X118.296 Y149.132 E.21512
G1 X117.877 Y149.132 E.01314
G1 X117.877 Y142.193 E.21757
G1 X117.458 Y142.11 E.01339
G1 X117.458 Y149.132 E.22017
G1 X117.039 Y149.132 E.01314
G1 X117.039 Y142.023 E.2229
G1 X116.62 Y141.93 E.01346
M73 Q2 S110
G1 X116.62 Y149.132 E.22581
G1 X116.201 Y149.132 E.01314
M73 P2 R105
G1 X116.201 Y141.832 E.22889
G1 X115.783 Y141.73 E.01349
G1 X115.783 Y149.132 E.23208
G1 X115.364 Y149.132 E.01314
G1 X115.364 Y141.622 E.23547
G1 X114.945 Y141.51 E.0136
G1 X114.945 Y149.132 E.23898
G1 X114.526 Y149.132 E.01314
G1 X114.526 Y141.392 E.24268
G1 X114.107 Y141.268 E.0137
G1 X114.107 Y149.132 E.24657
G1 X113.688 Y149.132 E.01314
G1 X113.688 Y141.139 E.25061
G1 X113.269 Y141.006 E.01378
G1 X113.269 Y149.132 E.25479
G1 X113.168 Y149.132 E.00317
G1 X113.168 Y146.824 E.07237
G1 X112.85 Y146.824 E.00997
G1 X112.85 Y140.867 E.18678
G1 X112.431 Y140.722 E.0139
G1 X112.431 Y146.824 E.19132
G1 X112.012 Y146.824 E.01314
G1 X112.012 Y140.572 E.19603
G1 X111.593 Y140.416 E.01402
G1 X111.593 Y146.824 E.20092
G1 X111.174 Y146.824 E.01314
G1 X111.174 Y140.254 E.206
G1 X110.755 Y140.088 E.01413
G1 X110.755 Y146.824 E.2112
G1 X110.336 Y146.824 E.01314
